packages/ui/public/icons/grid-view-icon.svg

<svg width="24" height="24" viewBox="0 0 24 24" fill="none" xmlns="http://www.w3.org/2000/svg">
<g opacity="0.12">
<path d="M8.4 3H4.6C4.03995 3 3.75992 3 3.54601 3.10899C3.35785 3.20487 3.20487 3.35785 3.10899 3.54601C3 3.75992 3 4.03995 3 4.6V8.4C3 8.96005 3 9.24008 3.10899 9.45399C3.20487 9.64215 3.35785 9.79513 3.54601 9.89101C3.75992 10 4.03995 10 4.6 10H8.4C8.96005 10 9.24008 10 9.45399 9.89101C9.64215 9.79513 9.79513 9.64215 9.89101 9.45399C10 9.24008 10 8.96005 10 8.4V4.6C10 4.03995 10 3.75992 9.89101 3.54601C9.79513 3.35785 9.64215 3.20487 9.45399 3.10899C9.24008 3 8.96005 3 8.4 3Z" fill="white"/>
<path d="M19.4 3H15.6C15.0399 3 14.7599 3 14.546 3.10899C14.3578 3.20487 14.2049 3.35785 14.109 3.54601C14 3.75992 14 4.03995 14 4.6V8.4C14 8.96005 14 9.24008 14.109 9.45399C14.2049 9.64215 14.3578 9.79513 14.546 9.89101C14.7599 10 15.0399 10 15.6 10H19.4C19.9601 10 20.2401 10 20.454 9.89101C20.6422 9.79513 20.7951 9.64215 20.891 9.45399C21 9.24008 21 8.96005 21 8.4V4.6C21 4.03995 21 3.75992 20.891 3.54601C20.7951 3.35785 20.6422 3.20487 20.454 3.10899C20.2401 3 19.9601 3 19.4 3Z" fill="white"/>
<path d="M19.4 14H15.6C15.0399 14 14.7599 14 14.546 14.109C14.3578 14.2049 14.2049 14.3578 14.109 14.546C14 14.7599 14 15.0399 14 15.6V19.4C14 19.9601 14 20.2401 14.109 20.454C14.2049 20.6422 14.3578 20.7951 14.546 20.891C14.7599 21 15.0399 21 15.6 21H19.4C19.9601 21 20.2401 21 20.454 20.891C20.6422 20.7951 20.7951 20.6422 20.891 20.454C21 20.2401 21 19.9601 21 19.4V15.6C21 15.0399 21 14.7599 20.891 14.546C20.7951 14.3578 20.6422 14.2049 20.454 14.109C20.2401 14 19.9601 14 19.4 14Z" fill="white"/>
<path d="M8.4 14H4.6C4.03995 14 3.75992 14 3.54601 14.109C3.35785 14.2049 3.20487 14.3578 3.10899 14.546C3 14.7599 3 15.0399 3 15.6V19.4C3 19.9601 3 20.2401 3.10899 20.454C3.20487 20.6422 3.35785 20.7951 3.54601 20.891C3.75992 21 4.03995 21 4.6 21H8.4C8.96005 21 9.24008 21 9.45399 20.891C9.64215 20.7951 9.79513 20.6422 9.89101 20.454C10 20.2401 10 19.9601 10 19.4V15.6C10 15.0399 10 14.7599 9.89101 14.546C9.79513 14.3578 9.64215 14.2049 9.45399 14.109C9.24008 14 8.96005 14 8.4 14Z" fill="white"/>
</g>
<path d="M8.4 3H4.6C4.03995 3 3.75992 3 3.54601 3.10899C3.35785 3.20487 3.20487 3.35785 3.10899 3.54601C3 3.75992 3 4.03995 3 4.6V8.4C3 8.96005 3 9.24008 3.10899 9.45399C3.20487 9.64215 3.35785 9.79513 3.54601 9.89101C3.75992 10 4.03995 10 4.6 10H8.4C8.96005 10 9.24008 10 9.45399 9.89101C9.64215 9.79513 9.79513 9.64215 9.89101 9.45399C10 9.24008 10 8.96005 10 8.4V4.6C10 4.03995 10 3.75992 9.89101 3.54601C9.79513 3.35785 9.64215 3.20487 9.45399 3.10899C9.24008 3 8.96005 3 8.4 3Z" stroke="white" stroke-width="2" stroke-linecap="round" stroke-linejoin="round"/>
<path d="M19.4 3H15.6C15.0399 3 14.7599 3 14.546 3.10899C14.3578 3.20487 14.2049 3.35785 14.109 3.54601C14 3.75992 14 4.03995 14 4.6V8.4C14 8.96005 14 9.24008 14.109 9.45399C14.2049 9.64215 14.3578 9.79513 14.546 9.89101C14.7599 10 15.0399 10 15.6 10H19.4C19.9601 10 20.2401 10 20.454 9.89101C20.6422 9.79513 20.7951 9.64215 20.891 9.45399C21 9.24008 21 8.96005 21 8.4V4.6C21 4.03995 21 3.75992 20.891 3.54601C20.7951 3.35785 20.6422 3.20487 20.454 3.10899C20.2401 3 19.9601 3 19.4 3Z" stroke="white" stroke-width="2" stroke-linecap="round" stroke-linejoin="round"/>
<path d="M19.4 14H15.6C15.0399 14 14.7599 14 14.546 14.109C14.3578 14.2049 14.2049 14.3578 14.109 14.546C14 14.7599 14 15.0399 14 15.6V19.4C14 19.9601 14 20.2401 14.109 20.454C14.2049 20.6422 14.3578 20.7951 14.546 20.891C14.7599 21 15.0399 21 15.6 21H19.4C19.9601 21 20.2401 21 20.454 20.891C20.6422 20.7951 20.7951 20.6422 20.891 20.454C21 20.2401 21 19.9601 21 19.4V15.6C21 15.0399 21 14.7599 20.891 14.546C20.7951 14.3578 20.6422 14.2049 20.454 14.109C20.2401 14 19.9601 14 19.4 14Z" stroke="white" stroke-width="2" stroke-linecap="round" stroke-linejoin="round"/>
<path d="M8.4 14H4.6C4.03995 14 3.75992 14 3.54601 14.109C3.35785 14.2049 3.20487 14.3578 3.10899 14.546C3 14.7599 3 15.0399 3 15.6V19.4C3 19.9601 3 20.2401 3.10899 20.454C3.20487 20.6422 3.35785 20.7951 3.54601 20.891C3.75992 21 4.03995 21 4.6 21H8.4C8.96005 21 9.24008 21 9.45399 20.891C9.64215 20.7951 9.79513 20.6422 9.89101 20.454C10 20.2401 10 19.9601 10 19.4V15.6C10 15.0399 10 14.7599 9.89101 14.546C9.79513 14.3578 9.64215 14.2049 9.45399 14.109C9.24008 14 8.96005 14 8.4 14Z" stroke="white" stroke-width="2" stroke-linecap="round" stroke-linejoin="round"/>
</svg>

<svg width="24" height="24" fill="none" xmlns="http://www.w3.org/2000/svg"><g opacity=".12" fill="#fff"><path d="M8.4 3H4.6c-.56 0-.84 0-1.054.109a1 1 0 0 0-.437.437C3 3.76 3 4.04 3 4.6v3.8c0 .56 0 .84.109 1.054a1 1 0 0 0 .437.437C3.76 10 4.04 10 4.6 10h3.8c.56 0 .84 0 1.054-.109a1 1 0 0 0 .437-.437C10 9.24 10 8.96 10 8.4V4.6c0-.56 0-.84-.109-1.054a1 1 0 0 0-.437-.437C9.24 3 8.96 3 8.4 3ZM19.4 3h-3.8c-.56 0-.84 0-1.054.109a1 1 0 0 0-.437.437C14 3.76 14 4.04 14 4.6v3.8c0 .56 0 .84.109 1.054a1 1 0 0 0 .437.437C14.76 10 15.04 10 15.6 10h3.8c.56 0 .84 0 1.054-.109a1 1 0 0 0 .437-.437C21 9.24 21 8.96 21 8.4V4.6c0-.56 0-.84-.109-1.054a1 1 0 0 0-.437-.437C20.24 3 19.96 3 19.4 3ZM19.4 14h-3.8c-.56 0-.84 0-1.054.109a1 1 0 0 0-.437.437C14 14.76 14 15.04 14 15.6v3.8c0 .56 0 .84.109 1.054a1 1 0 0 0 .437.437C14.76 21 15.04 21 15.6 21h3.8c.56 0 .84 0 1.054-.109a1 1 0 0 0 .437-.437C21 20.24 21 19.96 21 19.4v-3.8c0-.56 0-.84-.109-1.054a1 1 0 0 0-.437-.437C20.24 14 19.96 14 19.4 14ZM8.4 14H4.6c-.56 0-.84 0-1.054.109a1 1 0 0 0-.437.437C3 14.76 3 15.04 3 15.6v3.8c0 .56 0 .84.109 1.054a1 1 0 0 0 .437.437C3.76 21 4.04 21 4.6 21h3.8c.56 0 .84 0 1.054-.109a1 1 0 0 0 .437-.437C10 20.24 10 19.96 10 19.4v-3.8c0-.56 0-.84-.109-1.054a1 1 0 0 0-.437-.437C9.24 14 8.96 14 8.4 14Z"/></g><path d="M8.4 3H4.6c-.56 0-.84 0-1.054.109a1 1 0 0 0-.437.437C3 3.76 3 4.04 3 4.6v3.8c0 .56 0 .84.109 1.054a1 1 0 0 0 .437.437C3.76 10 4.04 10 4.6 10h3.8c.56 0 .84 0 1.054-.109a1 1 0 0 0 .437-.437C10 9.24 10 8.96 10 8.4V4.6c0-.56 0-.84-.109-1.054a1 1 0 0 0-.437-.437C9.24 3 8.96 3 8.4 3ZM19.4 3h-3.8c-.56 0-.84 0-1.054.109a1 1 0 0 0-.437.437C14 3.76 14 4.04 14 4.6v3.8c0 .56 0 .84.109 1.054a1 1 0 0 0 .437.437C14.76 10 15.04 10 15.6 10h3.8c.56 0 .84 0 1.054-.109a1 1 0 0 0 .437-.437C21 9.24 21 8.96 21 8.4V4.6c0-.56 0-.84-.109-1.054a1 1 0 0 0-.437-.437C20.24 3 19.96 3 19.4 3ZM19.4 14h-3.8c-.56 0-.84 0-1.054.109a1 1 0 0 0-.437.437C14 14.76 14 15.04 14 15.6v3.8c0 .56 0 .84.109 1.054a1 1 0 0 0 .437.437C14.76 21 15.04 21 15.6 21h3.8c.56 0 .84 0 1.054-.109a1 1 0 0 0 .437-.437C21 20.24 21 19.96 21 19.4v-3.8c0-.56 0-.84-.109-1.054a1 1 0 0 0-.437-.437C20.24 14 19.96 14 19.4 14ZM8.4 14H4.6c-.56 0-.84 0-1.054.109a1 1 0 0 0-.437.437C3 14.76 3 15.04 3 15.6v3.8c0 .56 0 .84.109 1.054a1 1 0 0 0 .437.437C3.76 21 4.04 21 4.6 21h3.8c.56 0 .84 0 1.054-.109a1 1 0 0 0 .437-.437C10 20.24 10 19.96 10 19.4v-3.8c0-.56 0-.84-.109-1.054a1 1 0 0 0-.437-.437C9.24 14 8.96 14 8.4 14Z" stroke="#fff" stroke-width="2" stroke-linecap="round" stroke-linejoin="round"/></svg>
